X: 42235
T: We And The Moon Are Neighbours
R: hornpipe
M: 4/4
K: Gmajor
|:Bc BA GF B2|B4 B4|Bc BA GF c2|cB A4 A2|
AB AG FE B2|BA G4 G2|GB AG FA F2|F4 F4|
Bc BA GF B2|B4 B4|ed fe ed c2|cB A4 Ad|
dc ed dc B2|BA G4 G2|cd BA GF E2|E2 G2 B2 e2|
e2 ef f2 e2|e4 e2 z2|d>d ed z2 c>c|dc f4 f2|
gf e4 eg|gf e4 e2|e2 d>d ed z2|c>c dc d2 Bc|d2z6:|

